X:1
T:99
L:1/8
M:4/4
K:G
V:1 treble nm="Piano" snm="Pno."
V:1
 C2 DE C2 B,A, | G,4 G4 | A2 GA =F2 E/GE/ | D8 | D3 E D2 B,2 | A, B,2 G, A,4 | D3 =F (3EFE D2 | %7
 C8 |] %8

